X: 142102
T: HORNPIPE
R:  Hornpipe.
%R: hornpipe, reel
B: James Kerr "Merry Melodies" v.1 p.42 s.1 #2
Z: 2016 John Chambers <jc:trillian.mit.edu>
M: C
L: 1/8
K: G
|:\
GABc dBAG | gfag fedc | BdBG cecA | BdBG FAFD |\
GABc dBAG | gfag fedc | BdBG cecA | FDEF G2z2 :|
defg fafd | gbge fafd | defg fafd | BdBG FAFD |\
BdBG cecA | fafd gbge | dgfe dcBA | B2G2G2 H|]

%%sep 1 1 500
%%sep 1 1 500

